!!!OTL: Ge haocao
!!!ARE: Asia, China,ÿJiangsu, ?jiang
!! III, 475
!!!SCT: C1579
!!!YEM: Copyright 1995, estate of Helmut Schaffrath.
**kern
*ICvox
*Ivox
!! Mixed meters:  2/4; 3/8
*M2/4
*k[f#]
*G:
{8.dd
16b
8dd
8gg
=1
4.ee
16dd
16ee
=2
4.dd
16b
16a
=3
2g
=4
*M3/8
8a
8b
8dd
=5
*M2/4
4b
4a
=6
2d}
=7
{16dd
16b
16a
16g
16a
16g
8b
=8
16dd
16b
16a
16g
4g
=9
8dd
16ee
16gg
8ee
16dd
16b
=10
16dd
16b
16g
16a
4b}
=11
{16b
16dd
16ee
16gg
16ee
16dd
16dd
16b
=12
16dd
16b
8b
4a
=13
8dd
8a
4d
=14
16dd
16b
16a
16g
16a
16g
16a
16dd
=15
8b
16a
16g
4g}
==
!!!AGN: Haozi, Cheshui haozi, Wujuban
!!!AMT: irregular
!!!AIN: vox
!!!EED: Helmut Schaffrath
!!!EEV: 1.0
*-
